X: 2299
T: Backseat Soccer
R: reel
M: 4/4
K: Dmajor
de|f3g fedB|Af2g fedB|BGGB cAAc|dBdf eA A/A/A|
f3g fedB|Af2g fedB|BGGB cAAc|dfecd2:|
dc|BGBd B2cB|AFAB A2 dc|BGBd B2ef|gfef d2dc|
BGBd B2cB|AFAB A2 dc|BGBd B2ef|dfecd2:|

